img/logo-desktop.svg

<svg width="170" height="36" viewBox="0 0 170 36" fill="none" xmlns="http://www.w3.org/2000/svg">
<path d="M142.936 17.24H147.136V24.2C146.176 24.888 145.072 25.416 143.824 25.784C142.576 26.152 141.328 26.336 140.08 26.336C138.32 26.336 136.736 25.968 135.328 25.232C133.92 24.48 132.816 23.44 132.016 22.112C131.216 20.784 130.816 19.28 130.816 17.6C130.816 15.92 131.216 14.416 132.016 13.088C132.816 11.76 133.928 10.728 135.352 9.992C136.776 9.24 138.384 8.864 140.176 8.864C141.744 8.864 143.152 9.128 144.4 9.656C145.648 10.184 146.688 10.944 147.52 11.936L144.496 14.672C143.36 13.424 142 12.8 140.416 12.8C138.976 12.8 137.816 13.24 136.936 14.12C136.056 14.984 135.616 16.144 135.616 17.6C135.616 18.528 135.816 19.36 136.216 20.096C136.616 20.816 137.176 21.384 137.896 21.8C138.616 22.2 139.44 22.4 140.368 22.4C141.28 22.4 142.136 22.216 142.936 21.848V17.24ZM159.101 26.336C157.325 26.336 155.725 25.96 154.301 25.208C152.893 24.456 151.781 23.416 150.965 22.088C150.165 20.76 149.765 19.264 149.765 17.6C149.765 15.936 150.165 14.44 150.965 13.112C151.781 11.784 152.893 10.744 154.301 9.992C155.725 9.24 157.325 8.864 159.101 8.864C160.877 8.864 162.469 9.24 163.877 9.992C165.301 10.744 166.413 11.784 167.213 13.112C168.029 14.44 168.437 15.936 168.437 17.6C168.437 19.264 168.029 20.76 167.213 22.088C166.413 23.416 165.301 24.456 163.877 25.208C162.469 25.96 160.877 26.336 159.101 26.336ZM159.101 22.4C159.949 22.4 160.717 22.2 161.405 21.8C162.093 21.4 162.637 20.84 163.037 20.12C163.437 19.384 163.637 18.544 163.637 17.6C163.637 16.656 163.437 15.824 163.037 15.104C162.637 14.368 162.093 13.8 161.405 13.4C160.717 13 159.949 12.8 159.101 12.8C158.253 12.8 157.485 13 156.797 13.4C156.109 13.8 155.565 14.368 155.165 15.104C154.765 15.824 154.565 16.656 154.565 17.6C154.565 18.544 154.765 19.384 155.165 20.12C155.565 20.84 156.109 21.4 156.797 21.8C157.485 22.2 158.253 22.4 159.101 22.4Z" fill="#333333"/>
<path fill-rule="evenodd" clip-rule="evenodd" d="M124 18C124 20.8737 123.401 23.5901 122.337 26H109C111.463 22.2281 114 17.6606 114 13C114 7.00236 109.938 1.95335 104.416 0.453392C105.568 0.156712 106.768 0 108 0C116.837 0 124 8.05888 124 18ZM110 13C110 8.02944 105.971 4 101 4C94.3493 4 92 12.5071 92 18C92 27.9411 99.1634 36 108 36C112.739 36 116.996 33.6825 119.926 30H101C101.352 29.5514 101.72 29.0891 102.099 28.6142C105.616 24.2012 110 18.6997 110 13Z" fill="#7859CF"/>
<path d="M2.65063 9.2H10.5946C12.4346 9.2 14.0666 9.544 15.4906 10.232C16.9146 10.92 18.0186 11.896 18.8026 13.16C19.5866 14.424 19.9786 15.904 19.9786 17.6C19.9786 19.296 19.5866 20.776 18.8026 22.04C18.0186 23.304 16.9146 24.28 15.4906 24.968C14.0666 25.656 12.4346 26 10.5946 26H2.65063V9.2ZM10.4026 22.208C11.8426 22.208 12.9946 21.8 13.8586 20.984C14.7386 20.168 15.1786 19.04 15.1786 17.6C15.1786 16.16 14.7386 15.032 13.8586 14.216C12.9946 13.4 11.8426 12.992 10.4026 12.992H7.40263V22.208H10.4026ZM30.3028 21.536H27.7108V26H22.9588V9.2H30.6388C32.1588 9.2 33.4788 9.456 34.5988 9.968C35.7188 10.464 36.5828 11.184 37.1908 12.128C37.7988 13.056 38.1028 14.152 38.1028 15.416C38.1028 16.632 37.8148 17.696 37.2388 18.608C36.6788 19.504 35.8708 20.208 34.8148 20.72L38.4388 26H33.3508L30.3028 21.536ZM33.3028 15.416C33.3028 14.632 33.0548 14.024 32.5588 13.592C32.0628 13.16 31.3268 12.944 30.3508 12.944H27.7108V17.864H30.3508C31.3268 17.864 32.0628 17.656 32.5588 17.24C33.0548 16.808 33.3028 16.2 33.3028 15.416ZM41.2044 9.2H45.9564V26H41.2044V9.2ZM65.8012 9.2V26H61.8892L54.4732 17.048V26H49.8172V9.2H53.7292L61.1452 18.152V9.2H65.8012ZM76.1131 19.904L74.3371 21.8V26H69.6331V9.2H74.3371V16.184L80.8411 9.2H86.0731L79.2091 16.64L86.4331 26H80.9131L76.1131 19.904Z" fill="#333333"/>
</svg>

<svg width="170" height="36" fill="none" xmlns="http://www.w3.org/2000/svg"><path d="M142.936 17.24h4.2v6.96c-.96.688-2.064 1.216-3.312 1.584a13.18 13.18 0 0 1-3.744.552c-1.76 0-3.344-.368-4.752-1.104-1.408-.752-2.512-1.792-3.312-3.12-.8-1.328-1.2-2.832-1.2-4.512 0-1.68.4-3.184 1.2-4.512.8-1.328 1.912-2.36 3.336-3.096 1.424-.752 3.032-1.128 4.824-1.128 1.568 0 2.976.264 4.224.792 1.248.528 2.288 1.288 3.12 2.28l-3.024 2.736c-1.136-1.248-2.496-1.872-4.08-1.872-1.44 0-2.6.44-3.48 1.32-.88.864-1.32 2.024-1.32 3.48 0 .928.2 1.76.6 2.496.4.72.96 1.288 1.68 1.704.72.4 1.544.6 2.472.6.912 0 1.768-.184 2.568-.552V17.24Zm16.165 9.096c-1.776 0-3.376-.376-4.8-1.128-1.408-.752-2.52-1.792-3.336-3.12-.8-1.328-1.2-2.824-1.2-4.488 0-1.664.4-3.16 1.2-4.488.816-1.328 1.928-2.368 3.336-3.12 1.424-.752 3.024-1.128 4.8-1.128 1.776 0 3.368.376 4.776 1.128 1.424.752 2.536 1.792 3.336 3.12.816 1.328 1.224 2.824 1.224 4.488 0 1.664-.408 3.16-1.224 4.488-.8 1.328-1.912 2.368-3.336 3.12-1.408.752-3 1.128-4.776 1.128Zm0-3.936c.848 0 1.616-.2 2.304-.6.688-.4 1.232-.96 1.632-1.68.4-.736.6-1.576.6-2.52s-.2-1.776-.6-2.496a4.295 4.295 0 0 0-1.632-1.704c-.688-.4-1.456-.6-2.304-.6-.848 0-1.616.2-2.304.6-.688.4-1.232.968-1.632 1.704-.4.72-.6 1.552-.6 2.496s.2 1.784.6 2.52c.4.72.944 1.28 1.632 1.68.688.4 1.456.6 2.304.6Z" fill="#333"/><path fill-rule="evenodd" clip-rule="evenodd" d="M124 18c0 2.874-.599 5.59-1.663 8H109c2.463-3.772 5-8.34 5-13 0-5.998-4.062-11.047-9.584-12.547A14.348 14.348 0 0 1 108 0c8.837 0 16 8.059 16 18Zm-14-5a9 9 0 0 0-9-9c-6.65 0-9 8.507-9 14 0 9.941 7.163 18 16 18 4.739 0 8.996-2.318 11.926-6H101c.352-.449.72-.91 1.099-1.386C105.616 24.201 110 18.7 110 13Z" fill="#7859CF"/><path d="M2.65 9.2h7.945c1.84 0 3.472.344 4.896 1.032 1.424.688 2.528 1.664 3.312 2.928.784 1.264 1.176 2.744 1.176 4.44 0 1.696-.392 3.176-1.176 4.44-.784 1.264-1.888 2.24-3.312 2.928-1.424.688-3.056 1.032-4.896 1.032H2.65V9.2Zm7.753 13.008c1.44 0 2.592-.408 3.456-1.224.88-.816 1.32-1.944 1.32-3.384s-.44-2.568-1.32-3.384c-.864-.816-2.016-1.224-3.456-1.224h-3v9.216h3Zm19.9-.672H27.71V26h-4.752V9.2h7.68c1.52 0 2.84.256 3.96.768 1.12.496 1.984 1.216 2.592 2.16.608.928.912 2.024.912 3.288 0 1.216-.288 2.28-.864 3.192-.56.896-1.368 1.6-2.424 2.112L38.439 26H33.35l-3.048-4.464Zm3-6.12c0-.784-.248-1.392-.744-1.824-.496-.432-1.232-.648-2.208-.648h-2.64v4.92h2.64c.976 0 1.712-.208 2.208-.624.496-.432.744-1.04.744-1.824ZM41.204 9.2h4.752V26h-4.752V9.2Zm24.597 0V26H61.89l-7.416-8.952V26h-4.656V9.2h3.912l7.416 8.952V9.2h4.656Zm10.312 10.704L74.337 21.8V26h-4.704V9.2h4.704v6.984L80.841 9.2h5.232l-6.864 7.44L86.433 26h-5.52l-4.8-6.096Z" fill="#333"/></svg>
